X:1
T:Title
%%score 1 { 2 | 3 }
L:1/8
Q:1/4=100
M:6/8
K:G
V:1 treble nm="Grand Piano, Soprano"
V:2 treble nm="Choir Pad, Bass"
V:3 bass 
V:1
 [GB]2 [GB] [GB][FA][GB] | [Ac]2 [Ac] [Ac]2 [GB] | [FA]2 [FA] [GB]2 [Bd] | [GB]6 | %4
w: By~William~Batchelder~Bradbury * * * *||||
 [GB]2 [GB] [GB][FA][GB] | [Ec]2 [Ec] [Ec]2 [EA] | [DG]2 [DG] [GB]2 [FA] | G6 | %8
w: ||||
 [GB]2 [GB] [GB][FA][GB] | [Ac]6 | [FA]2 [FA] [FA][GB][Ac] | [Bd]6 | [GB]2 [GB] [GB][FA][GB] | %13
w: |||||
 [Ec]2 [Ec] [Ec]2 [EA] | [DG]2 [DG] [GB]2 [FA] | G6- | G3 z3 |] %17
w: ||||
V:2
 D2 D D2 D | E2 E E2 D | D2 D D2 D | D6 | D2 D D2 D | C2 C C2 C | B,2 B, D2 C | B,6 | D3 D3 | %9
 D2 D D3 | D2 D[K:bass] A,G,F, | G,6 | D2[K:treble] D D2 D | C2 G,[K:bass] G,2 C | B,2 B, D2 C | %15
 B,6- | B,3 z3 |] %17
V:3
 G,2 G, G,2 G, | C,2 C, C,2 D, | D,2 D, D,2 D, | G,6 | G,2 G, G,2 G, | C,2 C, C,2 C, | %6
 D,2 D, D,2 D, | G,6 | G,2 G, G,2 G, | D,2 D, D,3 | D,2 D, C,B,,A,, | G,,6 | G,2 G, G,2 G, | %13
 C,2 C, C,2 C, | D,2 D, D,2 D, | G,,6- | G,,3 z3 |] %17

